assets/images/icons/src/download.svg

<?xml version="1.0" encoding="utf-8"?>
<!-- Generated by IcoMoon.io -->
<!DOCTYPE svg PUBLIC "-//W3C//DTD SVG 1.1//EN" "http://www.w3.org/Graphics/SVG/1.1/DTD/svg11.dtd">
<svg version="1.1" xmlns="http://www.w3.org/2000/svg" xmlns:xlink="http://www.w3.org/1999/xlink" width="13" height="14" viewBox="0 0 13 14">
<path fill="#444444" d="M10 10.5q0-0.203-0.148-0.352t-0.352-0.148-0.352 0.148-0.148 0.352 0.148 0.352 0.352 0.148 0.352-0.148 0.148-0.352zM12 10.5q0-0.203-0.148-0.352t-0.352-0.148-0.352 0.148-0.148 0.352 0.148 0.352 0.352 0.148 0.352-0.148 0.148-0.352zM13 8.75v2.5q0 0.312-0.219 0.531t-0.531 0.219h-11.5q-0.312 0-0.531-0.219t-0.219-0.531v-2.5q0-0.312 0.219-0.531t0.531-0.219h3.633l1.055 1.062q0.453 0.438 1.062 0.438t1.062-0.438l1.062-1.062h3.625q0.312 0 0.531 0.219t0.219 0.531zM10.461 4.305q0.133 0.32-0.109 0.547l-3.5 3.5q-0.141 0.148-0.352 0.148t-0.352-0.148l-3.5-3.5q-0.242-0.227-0.109-0.547 0.133-0.305 0.461-0.305h2v-3.5q0-0.203 0.148-0.352t0.352-0.148h2q0.203 0 0.352 0.148t0.148 0.352v3.5h2q0.328 0 0.461 0.305z"></path>
</svg>

<svg xmlns="http://www.w3.org/2000/svg" width="13" height="14" viewBox="0 0 13 14"><path fill="#444" d="M10 10.5q0-.203-.148-.352T9.5 10t-.352.148T9 10.5t.148.352T9.5 11t.352-.148T10 10.5zm2 0q0-.203-.148-.352T11.5 10t-.352.148T11 10.5t.148.352.352.148.352-.148T12 10.5zm1-1.75v2.5q0 .312-.219.531T12.25 12H.75q-.312 0-.531-.219T0 11.25v-2.5q0-.312.219-.531T.75 8h3.633l1.055 1.062Q5.891 9.5 6.5 9.5t1.062-.438L8.624 8h3.625q.312 0 .531.219t.219.531zm-2.539-4.445q.133.32-.109.547l-3.5 3.5Q6.711 8.5 6.5 8.5t-.352-.148l-3.5-3.5q-.242-.227-.109-.547Q2.672 4 3 4h2V.5q0-.203.148-.352T5.5 0h2q.203 0 .352.148T8 .5V4h2q.328 0 .461.305z"/></svg>
